Hatter-kde-dark/actions/16/layer-duplicate.svg

<?xml version="1.0" encoding="UTF-8"?>
<svg viewBox="0 0 16 16" xmlns="http://www.w3.org/2000/svg">
 <defs id="defs3051">
  <style id="current-color-scheme" type="text/css">.ColorScheme-Text {
        color:#dedede;
      }
      .ColorScheme-Highlight {
        color:#3daee9;
      }</style>
 </defs>
 <path class="ColorScheme-Highlight" d="m5 5-3 3h9l3-3h-9zm0 4-3 3h9l3-3h-9z" fill="currentColor"/>
</svg>

<svg xmlns="http://www.w3.org/2000/svg" viewBox="0 0 16 16">
  <defs id="defs3051">
    <style type="text/css" id="current-color-scheme">
      .ColorScheme-Text {
        color:#dedede;
      }
      .ColorScheme-Highlight {
        color:#3daee9;
      }
      </style>
  </defs>
  <path
        style="fill:currentColor;fill-opacity:1;stroke:none"
        d="M 5 5 L 2 8 L 11 8 L 14 5 L 5 5 z M 5 9 L 2 12 L 11 12 L 14 9 L 5 9 z "
        class="ColorScheme-Highlight"
      />
</svg>
